X:1
T:At the Feet of Jesus Waiting
T:At the Feet of Jesus Waiting
T:N. S. Howard
T:Alice M. Lowe, 1885
T:Public Domain Courtesy of the Cyber Hymnal™
C:N. S. Howard
Z:Public Domain
Z:Courtesy of the Cyber Hymnal™
%%score ( 1 2 ) ( 3 4 )
L:1/8
Q:1/4=100
M:4/4
K:D
V:1 treble 
V:2 treble 
V:3 bass 
V:4 bass 
V:1
 [FA]3 [FA] [^E^G][FA][=GB][FA] | [FA]2 [Fd]4 [FA][Fd] | [Ac]3 [GB] [FA]2 [EG]2 | [DF]6 [DF][FA] | %4
w: 1.~At the feet of Je- sus|wait- ing, I have|heard His sweet com-|mand, “Go and|
w: 2.~At the feet of Je- sus|wait- ing, Do- ing|what He bids me|do, Toil- ing,|
w: 3.~At the feet of Je- sus|wait- ing, Lay- ing|ev- ery bur- den|down, Leav- ing|
 [Fd]3 [Fd] [Ge]2 [Fd]2 | [Ac]2 [GB]4 [Gc][GB] | [FA]3 [FA] [EG]2 [A,C]2 | [A,D]6 || %8
w: work with- in My|vine- yard, La- bor|with thy heart and|hand.”|
w: suff- ering, and en-|dur- ing, For His|grace will bear me|through.|
w: all the world can|give me, For a|bright and glor- ious|crown!|
"^Refrain" [DA][Fd] | [Fd] [Ec]4 z [EG][GB] | [GB] [FA]4 z [GB][FA] | [EG]3 [CE] [CA]2 [EG]2 | %12
w: ||||
w: I am|wait- ing, al- ways|wait- ing, Wait- ing|now to do His|
w: ||||
 [DF]6 [DF][FA] | [Fd]3 [Fd] [Ge]2 [Fd]2 | [Ac]2 [GB]4 [Gc][GB] | [FA]3 [FA] [GB]2 c2 | [Fd]6 |] %17
w: |||||
w: will: Wait- ing|now to hear the|mes- sage, And my|call- ing to ful-|fill.|
w: |||||
V:2
 x8 | x8 | x8 | x8 | x8 | x8 | x8 | x6 || x2 | x8 | x8 | x8 | x8 | x8 | x8 | x6 (3(E{F,}FG) | x6 |] %17
V:3
 [D,D]3 [D,D] [D,D][D,D][D,D][D,D] | [D,D]2 [D,A,]4 [D,A,][D,A,] | %2
w: ~ ~ ~ ~ ~ ~|~ ~ ~ ~|
 [A,,A,]3 [A,,A,] [A,,A,]2 [A,,A,]2 | [D,A,]6 [D,A,][D,A,] | [D,A,]3 [D,A,] [C,A,]2 (A,D) | %5
w: ~ ~ ~ ~|~ ~ ~|~ ~ ~ ~ *|
 [G,D]2 [G,D]4 [G,,D][G,,D] | [A,,D]3 [A,,A,] [A,,A,]2 [A,,G,]2 | [D,F,]6 || [D,F,][D,A,] | %9
w: ~ ~ ~ ~|~ ~ ~ ~|~|~ ~|
 A,A,[A,,A,][A,,A,] [A,,A,][A,,A,][A,,C][A,,C] | [D,D][D,D][D,D][D,D] [D,D][D,D][D,D][D,D] | %11
w: ~ ~ I am wait- ing, ~ ~|~ ~ al- ways wait- ing, * *|
 [A,C]3 A, [A,,A,]2 [A,,A,]2 | [D,A,]6 [D,A,][D,A,] | [D,A,]3 [D,A,] [C,A,]2 (A,D) | %14
w: |||
 [G,D]2 [G,D]4 [G,D][G,D] | [A,D]3 [A,D] [A,C]2 [A,,A,]2 | [D,A,]6 |] %17
w: |||
V:4
 x8 | x8 | x8 | x8 | x6 D,2 | x8 | x8 | x6 || x2 | A,A, x6 | x8 | x3 A, x4 | x8 | x6 D,2 | x8 | %15
 x8 | x6 |] %17

